X:1
T:Lavinder Girl
R:reel
B:Ryan's Mammoth Collection
Z:Contributed by Ray Davies,  ray:davies99.freeserve.co.uk
M:2/4
L:1/16
K:G
ud2"^Segno"|\
g2 bg dBcA | ceBd AGEG |  GFGE  DFAB | ceBd Acef |
g2 bg dBcA | ceBd AGEG |  GFEz g2 fg | ecAF G2  ::
DEFG  ABcA | BGAF GBdf |{a}gfge ddef | gbfa edef |
gafg  edAB | ceBd AGEF |  GFGE  zgfg | ecAF G2z2"Segno":|
